!!!SOCIAL_FUNCTION:	deer dance songs
!!!PDT:	1932
!!!OTL: No_93_The_Hunt_(b).krn
!!!REG: Southwest
!!!LANG: Non-Tone
!!!LING_GROUP: Yuman-Cochimi
**kern
*staff1
=1-
*clefF4
*k[b-]
*M2/4
12F\L
12A\
12A\J
4A\
=2
8c\L
8A\J
12A\L
12A\
12G\J
=3||
*M3/4
8A\L
8A\J
8A\L
8G\J
8A\
8r
=4
8.c\L
16A\Jk
12A\L
12G\
12F\J
8F\
8r
=5
12G\L
12G\
12F\J
8B-\L
8G\J
16F\LK
8F\
16F\Jk
=6
16F\LK
8F\
16F\Jk
16F\LK
8F\
16F\Jk
4F\
=7
2.r
=8
*M2/4
4r
8.r
16A\
=9
8A\L
8A\J
8A\
8r
=10
8c\L
8A\J
16A\LK
8A\
16G\Jk
=11
8A\L
8A\J
8A\L
8G\J
=12
4A\
4r
=13||
*M3/4
8.c\L
16A\Jk
12A\L
12G\
12F\J
8F\
8r
=14
12G\L
12G\
12F\J
8A\L
8G\J
16F\LK
8F\
16F\Jk
=15
16F\LK
8F\
16F\Jk
16F\LK
8F\
16F\Jk
4F\
=16
2.r
=17
*M2/4
8A\L
8A\J
8.A\L
16A\Jk
=18
8c\L
8c\J
8.A\L
16A\Jk
=19
8A\L
8A\J
8G\L
8F\J
=20
4F\
4r
=21
12A\L
12A\
12A\J
8c\L
8A\J
=22||
*M5/8
(8A\L
8G\)
8F\
(8A\
8G\J)
=23||
*M2/4
4F\
4r
=24
16A\LK
8.F\J
8r
16r
16F\
=25
16G\LK
8.F\J
16F\LL
16F\
16F\
16F\JJ
=26
16F\LL
16F\
16F\
16F\JJ
16F\LL
16F\
16F\
16F\JJ
=27
16F\LL
16F\JJ
8r
4r
==
*-
